X:1
T:Ring, Ring the Bells, the Joyful Bells
T:Ring, Ring the Bells, the Joyful Bells
T:J. J. Atack, before 1895
T:Anonymous
T:Public Domain Courtesy of the Cyber Hymnal™
T:Public Domain Courtesy of the Cyber Hymnal™
C:J. J. Atack, before 1895
Z:Public Domain
Z:Courtesy of the Cyber Hymnal™
%%score ( 1 2 ) ( 3 4 )
L:1/8
M:4/4
K:C
V:1 treble 
V:2 treble 
V:3 bass 
V:4 bass 
V:1
 c2 | B2 A2 G2 F2 | E2 D2 C2 [EG]2 | (AB) [Gc]2 [Fd]2 [Ec]2 | [DB]6 c2 | A2 F2 D2 (GF) | %6
w: 1.~Ring,|ring the bells, the|joy- ful bells, This|mer- * ry Christ- mas|morn; Their|sweet, me- lo- dious *|
w: 2.~Ring,|ring the bells, the|Christ- mas bells, For|in * their joy- ous|chime Once|more on earth the *|
w: 3.~Ring,|ring the bells, the|Christ- mas bells, Pro-|phet- * ic of the|day When|He of whom their *|
 [CE]2 [B,G]2 [Cc]2 [EG]2 | (AB) [Gc]2 [GB]2 [^FA]2 | G6 (GA) | [FB]2 [Ec]2 [Dd]2 (BG) | %10
w: mu- sic tells The|day * that Christ was|born. Sweet- *|ly they sound o’er *|
w: chor- us swells Of|an- * gel song sub-|lime. The *|sweet old sto- ry, *|
w: mu- sic tells Shall|all * the na- tions|sway; Shall *|bless and fill and *|
 [Cc]2 [CE]2 [DG]2 G2 | F2 E2 D2 C2 | G6 (GF) | [CE]2 [B,G]2 [Cc]2 [Ec]2 | (dc) (BA) [FG]2 [FG]2 | %15
w: vale and glen; Hark!|how their mu- sic|swells With *|“Peace on earth, good|will * to * men!” O|
w: ev- er new, Falls|on the heart a-|gain, Re- *|fresh- ing as the|ear- * ly * dew, Or|
w: rule each heart, Shall|bid all sor- rows|cease, And *|give His own the|bet- * ter * part Of|
 ([EG][FA]) ([FB][Gc]) [Fd]2 [DB]2 | [Ec]6 ||"^Refrain" c2 | B2 A2 G2 F2 | E2 D2 C2 F2 | %20
w: mer- * ry * Christ- mas|bells!|Ring,|ring the bells, the|joy- ful bells, The|
w: the * soft * sum- mer|rain.||||
w: ev- * er- * last- ing|peace.||||
 E2 [EG]2 [FA][FA][^FA][FA] | [EG]2 [FB]2 [Ec]4 | [Ec]4 [Ec][Fd][Ge][Fd] | c4 B4 | [Ec]6 |] %25
w: bells, the mer- ry, mer- ry|Christ- mas bells,|Ring, ring the mer- ry|Christ- mas|bells.|
w: |||||
w: |||||
V:2
 c2 | B2 A2 G2 F2 | E2 D2 C2 x2 | F2 x6 | x6 c2 | A2 F2 D2 D2 | x8 | ^F2 x6 | G6 G2 | x6 D2 | %10
 x6 G2 | F2 E2 D2 C2 | G6 D2 | x8 | F2 F2 x4 | x8 | x6 || c2 | B2 A2 G2 F2 | E2 D2 C2 F2 | E2 x6 | %21
 x8 | x8 | (EFGA) (DE F2) | x6 |] %25
V:3
 C2 | B,2 A,2 G,2 F,2 | E,2 D,2 C,2 [C,C]2 | [F,C]2 [E,C]2 [B,,G,]2 [C,G,]2 | G,6 C2 | %5
w: ~|~ ~ ~ ~|~ ~ ~ ~|~ ~ ~ ~|~ ~|
 A,2 F,2 D,2 [B,,G,]2 | [C,G,]2 [D,G,]2 [E,G,]2 [C,C]2 | [F,C]2 [E,C]2 [D,D]2 [D,C]2 | %8
w: ~ ~ ~ ~|~ ~ ~ ~|~ ~ ~ ~|
 [G,,B,]6 (B,C) | [G,D]2 [G,C]2 [G,B,]2 [F,B,]2 | [E,C]2 [C,C]2 [G,B,]2 G,2 | F,2 E,2 D,2 C,2 | %12
w: ~ ~ *|~ ~ ~ ~|~ ~ ~ ~|~ ~ ~ ~|
 G,6 [B,,G,]2 | [C,G,]2 [D,G,]2 [E,G,]2 [C,C]2 | (B,C) (DC) [G,B,]2 [G,B,]2 | %15
w: ~ ~|~ ~ ~ ~|~ * ~ * ~ ~|
 [C,C]2 G,2 [F,A,]2 G,2 | [C,G,]6 || z2 | z2 C2 B,2 A,2 | G,2 F,2 E,2 D,2 | %20
w: ~ ~ ~ ~|~||~ ~ ~|~ ~ ~ ~|
 C,2 [C,C]2 [F,C][F,C][D,D][D,D] | [G,D]2 [G,,D]2 [C,C]4 | [C,G,]2 [C,G,]2 [C,G,]2 [C,G,]2 | %23
w: ~ ~ ~ ~ ~ ~|~ ~ ~|Ring the mer- ry,|
 C4 G,4 | [C,G,]6 |] %25
w: mer- ry,|mer-|
V:4
 C2 | B,2 A,2 G,2 F,2 | E,2 D,2 C,2 x2 | x8 | G,6 C2 | A,2 F,2 D,2 x2 | x8 | x8 | x6 G,2 | x8 | %10
 x6 G,2 | F,2 E,2 D,2 C,2 | G,6 x2 | x8 | G,2 G,2 x4 | x2 (D,E,) x G,2 x | x6 || x2 | %18
 x2 C2 B,2 A,2 | G,2 F,2 E,2 D,2 | C,2 x6 | x8 | x8 | C,D,E,F, G,2 G,,2 | x6 |] %25

